themes/rocknblock/assets/images/site/icons/icon-footer-mail-mask.svg

<svg version="1.2" baseProfile="tiny-ps" xmlns="http://www.w3.org/2000/svg" width="45" height="46"><style>.shp0{fill:none;stroke:#fff;stroke-width:1.3}</style><path id="Layer" class="shp0" d="M14.17 18a2 2 0 012-2h14.66a2 2 0 012 2v10a2 2 0 01-2 2H16.17a2 2 0 01-2-2V18z"/><path id="Layer" class="shp0" d="M14.17 19.5l8.43 4.22c.57.28 1.23.28 1.79 0l8.44-4.22"/></svg>

<svg version="1.2" baseProfile="tiny-ps" xmlns="http://www.w3.org/2000/svg" viewBox="0 0 45 46" width="45" height="46">
	<title>Group 47461-svg</title>
	<style>
		tspan { white-space:pre }
		.shp0 { fill: none;stroke: #ffffff;stroke-width: 1.3 } 
	</style>
	<path id="Layer" class="shp0" d="M14.17 18C14.17 16.9 15.06 16 16.17 16L30.83 16C31.94 16 32.83 16.9 32.83 18L32.83 28C32.83 29.1 31.94 30 30.83 30L16.17 30C15.06 30 14.17 29.1 14.17 28L14.17 18Z" />
	<path id="Layer" class="shp0" d="M14.17 19.5L22.6 23.72C23.17 24 23.83 24 24.39 23.72L32.83 19.5" />
</svg>
